!!!COM: Mozart, Wolfgang Amadeus
!!!OTL: String Quartet No. 3 in G Major
!!!OMD: Adagio
!!!OMV: 2
!!!SCT1: K<sup>1</sup> 156
!!!SCA: Chronologisch-thematisches Verzeichnis sämtlicher Tonwerke Wolfgang Amade Mozarts (L. von Köchel; 1862, 2/1905, 3/1937, 1947)
!!!SCT2: K<sup>6</sup> 134b
!!!YOR: Breitkopf & Härtel Edition
!!!ENC: Edmund Correia, Jr.
!!!CDT: 1756/1/27/-1791/12/5/
!!!OCY: Österreich
!!!YEC: Copyright (c) 1994, 2000 Center for Computer Assisted Research in the Humanities
!!!YEM: Rights to all derivative editions reserved.
!!!YEM: Refer to licensing agreement for further details.
!!!YEN: United States of America
**kern	**dynam	**kern	**dynam	**kern	**dynam	**kern	**dynam
*I:Violoncello	*I:Violoncello	*I:Viola	*I:Viola	*I:Violino 2	*I:Violino 2	*I:Violino 1	*I:Violino 1
*>[A,A,B,B]	*	*>[A,A,B,B]	*	*>[A,A,B,B]	*	*>[A,A,B,B]	*
*>A	*	*>A	*	*>A	*	*>A	*
*clefF4	*	*clefC3	*	*clefG2	*	*clefG2	*
*k[f#]	*	*k[f#]	*	*k[f#]	*	*k[f#]	*
*e:	*	*e:	*	*e:	*	*e:	*
*M4/4	*	*M4/4	*	*M4/4	*	*M4/4	*
! Adagio	!	! Adagio	!	! Adagio	!	! Adagio	!
4E\	p	4e\	p	4g/	p	4b\	p
4r	.	4r	.	4r	.	(8ee\L	.
.	.	.	.	.	.	8gg\J)	.
4A\	f	4d#\	f	4c/	f	(8gg\L	f
.	.	.	.	.	.	8ff#\J)	.
4G\	p	4e\	p	4B/	p	16ee'\LL	.
.	.	.	.	.	.	(16b\xx	p?
!	!	!	!	!	!	!  This piano incorrectly placed under preceding note in source (cf. m. 24).	!
.	.	.	.	.	.	16ee\	.
.	.	.	.	.	.	16gg\JJ)	.
=2	=2	=2	=2	=2	=2	=2	=2
4A\	f	4c\	f	4d#/	f	(8gg\L	f
.	.	.	.	.	.	8ff#\J)	.
4G\	p	4B/	p	4e/	p	16ee'\	.
.	.	.	.	.	.	(16e/LLxx	p?
!	!	!	!	!	!	!  This piano missing in source edition (cf. m. 25).	!
.	.	.	.	.	.	16g/	.
.	.	.	.	.	.	16b/JJ)	.
8D#'\L	.	8f#'\L	.	8a'/L	.	8cc'\L	.
8E'\J	.	8B'\J	.	8g'/J	.	8b'\J	.
4r	.	4r	.	4r	.	8r	.
.	.	.	.	.	.	(16b/LL	.
.	.	.	.	.	.	16g/JJ)	.
=3	=3	=3	=3	=3	=3	=3	=3
4AA/	.	8r	.	8r	.	(16g/LL	.
.	.	.	.	.	.	16f#/JJ)	.
.	.	(8c/L	.	(8e/L	.	4f#/	.
4BB/	.	8B/	.	8d#/	.	.	.
.	.	8A/J)	.	8f#/J	.	4dd#\	.
4C/	.	8f#\	.	8a/L	.	.	.
.	.	4e\	.	8g/	.	4ee\	.
4A\	.	.	.	8cc/	.	.	.
.	.	8e\	.	[8a/J)	.	[8cc\	.
=4	=4	=4	=4	=4	=4	=4	=4
4B\	.	2d#\	.	8a/]	.	8cc\]	.
.	.	.	.	4g/	.	4b\	.
4BB/	.	.	.	.	.	.	.
.	.	.	.	8f#/	.	8a/	.
4E\	.	4e\	.	8e/L	.	(16g/LL	.
.	.	.	.	.	.	16f#/JJ)	.
.	.	.	.	8G/J	.	8e/	.
4F#\	f	[4dn\	f	(8.A/L	f	4r	.
.	.	.	.	32B/LL	.	.	.
.	.	.	.	32c/JJJ)	.	.	.
=5	=5	=5	=5	=5	=5	=5	=5
4G\	.	8.d\L]	.	8.B/L	.	(16ddn\LL	f
.	.	.	.	.	.	16gg\)	.
.	.	.	.	.	.	16gg'\	.
.	.	16b\Jk	.	16dd/Jk	.	16gg'\JJ	.
4r	.	(16b\LL	.	(16dd\LL	.	8.ggT\L	.
.	.	16a\)	.	16cc\)	.	.	.
.	.	(16a\	.	(16cc\	.	.	.
.	.	16g\JJ)	.	16b\JJ)	.	32ff#\LL	.
.	.	.	.	.	.	32gg\JJJ	.
4D\	.	8.f#\L	.	8.a/L	.	(16dd\LL	.
.	.	.	.	.	.	16aa\)	.
.	.	.	.	.	.	16aa'\	.
.	.	16a\Jk	.	16cc/Jk	.	16aa'\JJ	.
4r	.	(16a\LL	.	(16cc\LL	.	8.aaT\L	.
.	.	16g\)	.	16b\)	.	.	.
.	.	(16g\	.	(16b\	.	.	.
.	.	16f#\JJ)	.	16a\JJ)	.	32gg\LL	.
.	.	.	.	.	.	32aa\JJJ	.
=6	=6	=6	=6	=6	=6	=6	=6
8G\L	.	8.gT\L	.	8.bt/L	.	8.bbt\L	.
8E\	.	.	.	.	.	.	.
.	.	32f#\LL	.	32a/LL	.	32aa\LL	.
.	.	32g\JJJ	.	32b/JJJ	.	32bb\JJJ	.
8C\	.	8a\L	.	8cc'\L	.	(16ccc\LL	.
.	.	.	.	.	.	16ee\)	.
8C#\J	.	8e\J	.	(16cc\L	.	(16aa\	.
.	.	.	.	16b\JJ)	.	16gg\JJ)	.
8D\L	.	[4d\	.	(4b\	.	(4gg\	.
8D\J	.	.	.	.	.	.	.
8DD/	.	8d\]	.	8a/)	.	8ff#\)	.
8r	.	8r	.	8r	.	8r	.
=7	=7	=7	=7	=7	=7	=7	=7
4G\	.	(8.g\L	.	(8.bb\L	.	4r	.
.	.	16a\Jk)	.	16ccc\Jk)	.	.	.
4D\	.	16g\LK	.	16bb\LK	.	16r	.
.	.	8f#\	.	8aa\	.	(64dd\LLLL	.
.	.	.	.	.	.	64cc#\	.
.	.	.	.	.	.	64dd\	.
.	.	.	.	.	.	64ee\JJJJ)	.
.	.	.	.	.	.	(16dd/LL	.
.	.	16g\Jk	.	16bb\Jk	.	16d/JJ)	.
4F#\	.	(8.a\L	.	(8.ccc\L	.	4r	.
.	.	16b\Jk)	.	16ddd\Jk)	.	.	.
4G\	.	16a\LK	.	16ccc\LK	.	16r	.
.	.	8g\	.	8bb\	.	(64dd\LLLL	.
.	.	.	.	.	.	64cc#\	.
.	.	.	.	.	.	64dd\	.
.	.	.	.	.	.	64ee\JJJJ)	.
.	.	.	.	.	.	(16dd/LL	.
.	.	16a\Jk	.	16ccc\Jk	.	16d/JJ)	.
=8	=8	=8	=8	=8	=8	=8	=8
(8.G\L	p	8b\	p	[1ddd\	p	(8.b\L	p
.	.	8r	.	.	.	.	.
16A\Jk)	.	.	.	.	.	16ccn\Jk)	.
16G\LK	.	16r	.	.	.	16b/LK	.
8F#\	.	(64d\LLLL	.	.	.	8a/	.
.	.	64c#\	.	.	.	.	.
.	.	64d\	.	.	.	.	.
.	.	64e\JJJJ)	.	.	.	.	.
.	.	(16d/LL	.	.	.	.	.
16G\Jk	.	16D/JJ)	.	.	.	16b/Jk	.
(8.A\L	.	4r	.	.	.	(8.cc\L	.
16B\Jk)	.	.	.	.	.	16dd\Jk)	.
16A\LK	.	16r	.	.	.	16cc\LK	.
8G\	.	(64d\LLLL	.	.	.	8b\	.
.	.	64c#\	.	.	.	.	.
.	.	64d\	.	.	.	.	.
.	.	64e\JJJJ)	.	.	.	.	.
.	.	(16d/LL	.	.	.	.	.
16A\Jk	.	16D/JJ)	.	.	.	16cc\Jk	.
=9	=9	=9	=9	=9	=9	=9	=9
8B\L	.	4r	.	16ddd\LK]	.	8dd\	.
.	.	.	.	8b\	f	.	.
8G\	f	.	.	.	.	4gg\	f
.	.	.	.	8dd\	.	.	.
8GG\	.	16B/LK	f	.	.	.	.
.	.	8d/	.	8b\	.	.	.
8G\J	.	.	.	.	.	8dd\	.
.	.	16B/Jk	.	16g\Jk	.	.	.
8A\L	.	8A'\L	.	16r	.	(8.dd\L	.
.	.	.	.	8e/L	.	.	.
8A\	.	(8g\	.	.	.	.	.
.	.	.	.	8a/	.	16cc#\Jk)	.
8A\	.	8e\	.	.	.	4cc#\	.
.	.	.	.	8g/	.	.	.
8A\J	.	8g\J)	.	.	.	.	.
.	.	.	.	16e/Jk	.	.	.
=10	=10	=10	=10	=10	=10	=10	=10
8D\L	.	16r	.	16r	.	8ccn\	.
.	.	8A\L	.	8f#/L	.	.	.
8D\	.	.	.	.	.	4aa\	.
.	.	8f#\	.	8a/	.	.	.
8D\	.	.	.	.	.	.	.
.	.	8f#\	.	8d/	.	.	.
8D\J	.	.	.	.	.	8cc\	.
.	.	16A\Jk	.	16f#/Jk	.	.	.
8GG/L	.	8G'/L	.	16r	.	(8.cc\L	.
.	.	.	.	8f#/L	.	.	.
8GG/	.	(8d/	.	.	.	.	.
.	.	.	.	8g/	.	16b\Jk)	.
8GG/	.	8B/	.	.	.	4b\	.
.	.	.	.	8G/	.	.	.
8GG/J	.	8d/J)	.	.	.	.	.
.	.	.	.	16g/Jk	.	.	.
=11	=11	=11	=11	=11	=11	=11	=11
8r	.	8r	.	8r	.	(16dd#\LL	p
.	.	.	.	.	.	16ee\)	.
8C/Lxx	p	8e\L	p	8g/L	p	(16ff#\	.
.	.	.	.	.	.	16gg\JJ)	.
8C/	.	8e\	.	8g/	.	4gg\	.
8C/J	.	8e\J	.	8g/J	.	.	.
8r	.	8r	.	8r	.	(16g#/LL	.
.	.	.	.	.	.	16a/)	.
8D\L	.	8d/L	.	8f#/L	.	(16b/	.
.	.	.	.	.	.	16cc/JJ)	.
8D\	.	8A/	.	8f#/	.	4cc\	.
8D\J	.	8A/J	.	8f#/J	.	.	.
=12	=12	=12	=12	=12	=12	=12	=12
8r	.	8r	.	8r	.	8cc#\	.
8G\L	.	(4B/	.	4g/	.	4ddn\	.
8G\	.	.	.	.	.	.	.
8C\J	.	8c\)	.	8g/	.	(24ee\LL	.
.	.	.	.	.	.	24ccn\	.
.	.	.	.	.	.	24a\JJ)	.
4D\	.	8r	.	(16b/LL	.	(16dd\LL	.
.	.	.	.	16g/JJ)	.	16b\JJ)	.
.	.	(4d\	.	(4B/	.	(4gn/	.
4DD/	.	.	.	.	.	.	.
!	!	!	!	! 16dP/	!	! 16bP/	!
.	.	8F#/)	.	8cp/)	.	8ap/)	.
=13	=13	=13	=13	=13	=13	=13	=13
4GG/	.	4G/	.	4B/	.	8g\L	.
!	!	!	!	!	!	! 32aaP/	!
.	.	.	.	.	.	16ggp\L	.
.	.	.	.	.	.	32ff#\L	.
.	.	.	.	.	.	32ee\JJJ	.
8r	.	8r	.	8r	.	[4dd\	.
8D\	.	(32f#\LLL	.	(32a\LLL	.	.	.
.	.	32g\	.	32b\	.	.	.
.	.	32a\	.	32cc\	.	.	.
.	.	32f#\JJJ)	.	32a\JJJ)	.	.	.
4G\	.	4g\	.	4b\	.	8dd\L]	.
!	!	!	!	!	!	! 32aaP/	!
.	.	.	.	.	.	16ggp\L	.
.	.	.	.	.	.	32ff#\L	.
.	.	.	.	.	.	32ee\JJJ	.
8r	.	8r	.	8r	.	[4dd\	.
8D\	.	(32f#\LLL	.	(32a\LLL	.	.	.
.	.	32g\	.	32b\	.	.	.
.	.	32a\	.	32cc\	.	.	.
.	.	32f#\JJJ)	.	32a\JJJ)	.	.	.
=14	=14	=14	=14	=14	=14	=14	=14
4GG/	.	8g\L	.	8b/L	.	8dd/L]	.
.	.	8D/	p	(16B/L	p	(16d/L	p
.	.	.	.	16c/JJ)	.	16e/JJ)	.
4GG/	p	8E/	.	(8B/L	.	(8d/L	.
.	.	8F#/J	.	8A/J)	.	8c/J)	.
[4GG/	.	(4F#/	.	(4A/	.	(4c/	.
8GG/]	.	8G/)	.	8G/)	.	8B/)	.
8r	.	8r	.	8r	.	8r	.
=15:!!:	=15:!!:	=15:!!:	=15:!!:	=15:!!:	=15:!!:	=15:!!:	=15:!!:
*>B	*	*>B	*	*>B	*	*>B	*
8r	.	8r	.	8r	.	2fn/	f
8G#\L	f	8B/L	f	8d/L	f	.	.
8G#\	.	8B/	.	8d/	.	.	.
8G#\J	.	8B/J	.	8d/J	.	.	.
4A\	.	4c\	.	8c'/L	.	4e/	.
.	.	.	.	(8G#/	.	.	.
4r	.	4r	.	8A/J)	.	8r	.
.	.	.	.	(16cc\LL	p	(16ee\LL	p
.	.	.	.	16a\JJ)	.	16cc\JJ)	.
=16	=16	=16	=16	=16	=16	=16	=16
2r	.	2r	.	8g#/	.	8b\	.
.	.	.	.	(8dd\L	.	(8ffn\L	.
.	.	.	.	8cc\J)	.	8ee\J)	.
.	.	.	.	(8B/L	.	(8g#/L	.
8r	.	8r	.	8c/J)	.	8a/J)	.
(8A\L	.	(8c/L	.	8r	.	8r	.
8G#\J)	.	8B/J)	.	4r	.	4r	.
(8B\	.	(8d\	.	.	.	.	.
=17	=17	=17	=17	=17	=17	=17	=17
8A#\L)	.	8c#\L)	.	8r	.	2gn/	f
8A#\	.	8c#\	.	8e/L	f	.	.
8A#\	.	8c#\	.	8e/	.	.	.
8A#\J	.	8c#\J	.	8e/J	.	.	.
4B\	.	4d\	.	8d'/L	.	4f#/	.
.	.	.	.	(8A#/	.	.	.
4r	.	4r	.	8B/J)	.	8r	.
.	.	.	.	(16dd\LL	p	(16ff#\LL	p
.	.	.	.	16b\JJ)	.	16dd\JJ)	.
=18	=18	=18	=18	=18	=18	=18	=18
2r	.	2r	.	8a#/	.	8cc#'\	.
.	.	.	.	(8ee\L	.	(8gg\L	.
.	.	.	.	8dd\J)	.	8ff#\J)	.
.	.	.	.	(8c#/L	.	(8a#/L	.
8r	.	8r	.	8B/J)	.	8b/J)	.
(8Gn\L	.	(8B/L	.	8r	.	8r	.
8F#\J)	.	8A/J)	.	4r	.	4r	.
(8E\	.	(8G/	.	.	.	.	.
=19	=19	=19	=19	=19	=19	=19	=19
8D#\L)	p	8F#/L)	p	2b\	.	4r	.
8D#\	.	8F#/	.	.	.	.	.
8D#\	.	8F#/	.	.	.	[2bb\	.
8D#\J	.	8F#/J	.	.	.	.	.
8E\L	.	8G/	.	(16ccn\LL	.	.	.
.	.	.	.	16b\)	.	.	.
8E\	.	4G/	.	(16b\	.	.	.
.	.	.	.	16cc\JJ)	.	.	.
8E\	.	.	.	[4cc\	.	(16bb\LL]	.
.	.	.	.	.	.	16aa\)	.
8E\J	.	8E/	.	.	.	(16aa\	.
.	.	.	.	.	.	16gg#\JJ)	.
=20	=20	=20	=20	=20	=20	=20	=20
8F#\L	.	8F#/L	.	4cc\_	.	[2aa\	.
8F#\	.	8F#/	.	.	.	.	.
8F#\	.	8F#/	.	(16cc\LL]	.	.	.
.	.	.	.	16b\)	.	.	.
8E\J	.	8F#/J	.	(16b\	.	.	.
.	.	.	.	16an\JJ)	.	.	.
8D#\L	.	8F#/	.	(16a#\LL	.	4aa\_	.
.	.	.	.	16b\J)	.	.	.
8D#\	.	4F#/	.	8b\J	.	.	.
8D#\	.	.	.	[4b\	.	(16aa\LL]	.
.	.	.	.	.	.	16ggn\)	.
8D#\J	.	8d#\	.	.	.	(16gg\	.
.	.	.	.	.	.	16ff#\JJ)	.
=21	=21	=21	=21	=21	=21	=21	=21
8E\L	.	4e\	.	(16b\LL]	.	4gg\	.
.	.	.	.	16ee\)	.	.	.
16r	.	.	.	(16ee\	.	.	.
16B\Jk	.	.	.	16dd\JJ)	.	.	.
(16B\LL	.	8r	.	(16dd\LL	.	(16gg\LL	.
16An\)	.	.	.	16cc\)	.	16ff#\)	.
(16A\	.	16r	.	(16cc\	.	(16ff#\	.
16G\JJ)	.	16b\	.	16b\JJ)	.	16ee\JJ)	.
! cresc.	!	! cresc.	!	! cresc.	!	! cresc.	!
(16G\LL	.	(16b\LL	.	(16b\LL	.	(16ee\LL	.
16A\)	.	16f#\)	.	16cc\)	.	16dd#\)	.
16A'\	.	16f#'\	.	16cc'\	.	16dd#'\	.
16B'\JJ	.	16g'\JJ	.	16b'\JJ	.	16ee'\JJ	.
16c'\LL	.	16d#'\LL	.	16a'/LL	.	16ff#'\LL	.
16B'\	.	16e'\	.	16g'/	.	16gg'\	.
16A'\	.	16f#'\	.	16f#'/	.	16aa'\	.
16G'\JJ	.	16g'\JJ	.	16e'/JJ	.	16bb'\JJ	.
=22	=22	=22	=22	=22	=22	=22	=22
4F#\	f	4a\	f	8d#/	f	8ccc'\	f
.	.	.	.	(8a/L	p	(8cc\L	p
4r	.	4r	.	8g/	.	8b\	.
.	.	.	.	8f#/J)	.	8a\J)	.
8r	.	8r	.	8e/L	.	8g/L	.
16.E'\LL	.	16.e'\LL	.	16.e'/L	f	16.e'/L	f
32D#'\JJk	.	32d#'\JJk	.	32d#'/JJk	.	32d#'/JJk	.
8E'/L	.	8e'\L	.	8e'/L	.	8e'/L	.
8AA#'/J	.	8A#'\J	.	8A#'/J	.	8A#'/J	.
=23	=23	=23	=23	=23	=23	=23	=23
4BB/	.	4B/	.	8B/	.	8B/	.
.	.	.	.	16r	.	16r	.
.	.	.	.	(8G#/L	p	(8B/L	p
4r	.	4r	.	.	.	.	.
.	.	.	.	8An/	.	8cn/	.
.	.	.	.	8B/	.	8d#/	.
2r	.	2r	.	.	.	.	.
.	.	.	.	8c/	.	8e/	.
.	.	.	.	8d#/	.	8f#/	.
.	.	.	.	8e/	.	8g/	.
.	.	.	.	16f#/Jk)	.	16a/Jk)	.
=24	=24	=24	=24	=24	=24	=24	=24
4E\	p	4e\	p	4g/	.	4b\	.
4r	.	4r	.	4r	.	(8ee\L	.
.	.	.	.	.	.	8gg\J)	.
4A\	f	4d#\	f	4c/	f	(8gg\L	f
.	.	.	.	.	.	8ff#\J)	.
4G\	p	4e\	p	4B/	p	16ee'\xx	.
.	.	.	.	.	.	(16b\LL	p
.	.	.	.	.	.	16ee\	.
.	.	.	.	.	.	16gg\JJ)	.
=25	=25	=25	=25	=25	=25	=25	=25
4A\	f	4c\	f	4d#/	f	(8gg\L	f
.	.	.	.	.	.	8ff#\J)	.
4G\	p	4B/	p	4e/	p	16ee'\	.
.	.	.	.	.	.	(16e/LL	p
.	.	.	.	.	.	16g/	.
.	.	.	.	.	.	16b/JJ)	.
8D#'\L	.	8f#'\L	.	8a'/L	.	8cc'\L	.
8E'\J	.	8B'\J	.	8g'/J	.	8b'\J	.
4r	.	4r	.	4r	.	8r	.
.	.	.	.	.	.	8ffn\	.
=26	=26	=26	=26	=26	=26	=26	=26
(4Dn\	.	8r	.	8r	.	(4.a/	.
.	.	(8d\L	.	(8fn/L	.	.	.
4E\)	.	8c\	.	8e/	.	.	.
.	.	8B\J)	.	8d/J)	.	8g#/)	.
4AA/	.	4A/	.	4c/	.	(8a/L	.
.	.	.	.	.	.	8b/	.
8r	.	8r	.	8r	.	8cc/)	.
(8B\	.	(8f#\	.	(8a/	.	8d#'/J	.
=27	=27	=27	=27	=27	=27	=27	=27
4c\)	.	4e\)	.	4g/)	.	(8e/L	.
.	.	.	.	.	.	8f#/	.
8r	.	8r	.	8r	.	8g/)	.
(8E\	f	8g\	f	8a#/	f	(8A#/J	f
8D#/L)	.	8.f#\L	.	(16b\LL	.	8.B/L)	.
.	.	.	.	16ff#\)	.	.	.
8D#/	.	.	.	16ff#'\	.	.	.
.	.	16f#\Jk	.	16ff#'\JJ	.	16an/Jk	.
8BB/	.	(16f#\LL	.	8.ff#t\L	.	(16a/LL	.
.	.	16e\)	.	.	.	16g/)	.
8BB/J	.	(16e\	.	.	.	(16g/	.
.	.	16d#\JJ)	.	32ee\LL	.	16f#/JJ)	.
.	.	.	.	32ff#\JJJ	.	.	.
=28	=28	=28	=28	=28	=28	=28	=28
8E\L	.	8.e\L	.	(16b\LL	.	8.B/L	.
.	.	.	.	16gg\)	.	.	.
8E\	.	.	.	16gg'\	.	.	.
.	.	16B\Jk	.	16gg'\JJ	.	16g/Jk	.
8E\	.	(16B/LL	.	8.ggT\L	.	(16g/LL	.
.	.	16A/)	.	.	.	16f#/)	.
8E\J	.	(16A/	.	.	.	(16f#/	.
.	.	16G/JJ)	.	32ff#\LL	.	16e/JJ)	.
.	.	.	.	32gg\JJJ	.	.	.
8A\L	.	8.A\L	.	8.ee\L	.	(16cc\LL	.
.	.	.	.	.	.	16ccc\)	.
8C\	.	.	.	.	.	16ccc'\	.
.	.	16a\Jk	.	16cc\Jk	.	16ccc'\JJ	.
8Dn\	.	(16a\LL	.	(16cc\LL	.	8.cccT\L	.
.	.	16g\)	.	16b\)	.	.	.
8D\J	.	(16g\	.	(16b\	.	.	.
.	.	16f#\JJ)	.	16an\JJ)	.	32bb\LL	.
.	.	.	.	.	.	32ccc\JJJ	.
=29	=29	=29	=29	=29	=29	=29	=29
8G\L	.	8.g\L	.	8.g/L	.	(16b\LL	.
.	.	.	.	.	.	16bb\)	.
8BB\	.	.	.	.	.	16bb'\	.
.	.	16g\Jk	.	16b/Jk	.	16bb'\JJ	.
8C\	.	(16g\LL	.	(16b/LL	.	8.bbt\L	.
.	.	16f#\)	.	16a/)	.	.	.
8C\J	.	(16f#\	.	(16a/	.	.	.
.	.	16e\JJ)	.	16g/JJ)	.	32aa\LL	.
.	.	.	.	.	.	32bb\JJJ	.
8F#/L	.	(8.c\L	.	8.f#/L	.	(16a\LL	.
.	.	.	.	.	.	16aa\)	.
8AA/	.	.	.	.	.	16aa'\	.
.	.	16f#\Jk)	.	16a/Jk	.	16aa'\JJ	.
8BB/	.	(16f#\LL	.	(16a/LL	.	8.aaT\L	.
.	.	16e\)	.	16g/)	.	.	.
8BB/J	.	(16e\	.	(16g/	.	.	.
.	.	16d#\JJ)	.	16f#/JJ)	.	32gg\LL	.
.	.	.	.	.	.	32aa\JJJ	.
=30	=30	=30	=30	=30	=30	=30	=30
4E\	.	(8.e\L	.	(8.g/L	.	8gg\	.
.	.	.	.	.	.	8r	.
.	.	16f#\Jk)	.	16a/Jk)	.	.	.
4B\	.	16e\LK	.	16g/LK	.	16r	.
.	.	8d#\	.	8f#/	.	(64b\LLLL	.
.	.	.	.	.	.	64a\	.
.	.	.	.	.	.	64b\	.
.	.	.	.	.	.	64cc\JJJJ)	.
.	.	.	.	.	.	(16b/LL	.
.	.	16e\Jk	.	16g/Jk	.	16B/JJ)	.
4D#\	.	(8.f#\L	.	(8.a/L	.	4r	.
.	.	16g\Jk)	.	16b/Jk)	.	.	.
4E\	.	16f#\LK	.	16a/LK	.	16r	.
.	.	8e\	.	8g/	.	(64b\LLLL	.
.	.	.	.	.	.	64a\	.
.	.	.	.	.	.	64b\	.
.	.	.	.	.	.	64cc\JJJJ)	.
.	.	.	.	.	.	(16b/LL	.
.	.	16f#\Jk	.	16a/Jk	.	16B/JJ)	.
=31	=31	=31	=31	=31	=31	=31	=31
(8.E\L	p	(16g\LL	.	8b\	.	(8.gg\L	p
.	.	16e\JJ)	.	.	.	.	.
.	.	4B/	p	8r	.	.	.
16F#\Jk)	.	.	.	.	.	16aa\Jk)	.
16E\LK	.	.	.	16r	.	16gg\LK	.
8D#\	.	.	.	(64b\LLLL	p	8ff#\	.
.	.	.	.	64a\	.	.	.
.	.	.	.	64b\	.	.	.
.	.	.	.	64cc\JJJJ)	.	.	.
.	.	4B/	.	(16b/LL	.	.	.
16E\Jk	.	.	.	16B/JJ)	.	16gg\Jk	.
(8.F#\L	.	.	.	4r	.	(8.aa\L	.
.	.	4B/	.	.	.	.	.
16G\Jk)	.	.	.	.	.	16bb\Jk)	.
16F#\LK	.	.	.	16r	.	16aa\LK	.
8E\	.	.	.	(64b\LLLL	.	8gg\	.
.	.	.	.	64a\	.	.	.
.	.	.	.	64b\	.	.	.
.	.	.	.	64cc\JJJJ)	.	.	.
.	.	8B/	.	(16b/LL	.	.	.
16F#\Jk	.	.	.	16B/JJ)	.	16aa\Jk	.
=32	=32	=32	=32	=32	=32	=32	=32
8G\L	f	16r	.	16r	.	8bb\	f
.	.	8B\L	f	8e/L	f	.	.
8G\	.	.	.	.	.	4ee\	.
.	.	8e\	.	8g/	.	.	.
8G\	.	.	.	.	.	.	.
.	.	8g\	.	8b/	.	.	.
8G\J	.	.	.	.	.	8bb\	.
.	.	16B\Jk	.	16e/Jk	.	.	.
8F#\L	.	16r	.	16r	.	(8.bb\L	.
.	.	8c#\L	.	8e/L	.	.	.
8F#\	.	.	.	.	.	.	.
.	.	8e\	.	8c#/	.	16aa#\Jk)	.
8F#\	.	.	.	.	.	4aa#\	.
.	.	8c#\	.	8f#/	.	.	.
8F#\J	.	.	.	.	.	.	.
.	.	[16c#\Jk	.	[16e/Jk	.	.	.
=33	=33	=33	=33	=33	=33	=33	=33
8BB/L	.	16c#\LK]	.	16e/LK]	.	8aan\	.
.	.	8B\	.	8d#/	.	.	.
8BB/	.	.	.	.	.	4B/	.
.	.	8d#\	.	8f#/	.	.	.
8BB/	.	.	.	.	.	.	.
.	.	8f#\	.	8a/	.	.	.
8BB/J	.	.	.	.	.	8aa\	.
.	.	8d#\	.	8f#/	.	.	.
8C/L	.	.	.	.	.	(8.aa\L	.
.	.	8f#\	.	8d#/	.	.	.
8C/	.	.	.	.	.	.	.
.	.	8e\	.	8e/	.	16gg\Jk)	.
8GG/	.	.	.	.	.	4gg\	.
.	.	8e\	.	8B/	.	.	.
8GG/J	.	.	.	.	.	.	.
.	.	16B\Jk	.	16e/Jk	.	.	.
=34	=34	=34	=34	=34	=34	=34	=34
4AA/	p	8r	.	8r	.	(16ee\LL	p
.	.	.	.	.	.	16ffn\	.
.	.	8A/L	p	8cn/L	p	16gg\	.
.	.	.	.	.	.	16ff\JJ)	.
4r	.	8A/	.	8c/	.	4ff\	.
.	.	8A/J	.	8c/J	.	.	.
4AA/	.	8r	.	8r	.	(16ee\LL	.
.	.	.	.	.	.	16dd#\	.
.	.	8cn\L	.	8f#/L	.	16ccc\	.
.	.	.	.	.	.	16dd#\JJ)	.
4r	.	8c\	.	8f#/	.	4dd#\	.
.	.	8c\J	.	8f#/J	.	.	.
=35	=35	=35	=35	=35	=35	=35	=35
8AA#/L	.	8c#\L	.	(16g/LL	.	(16ee\LL	.
.	.	.	.	16f#/	.	16dd#\	.
8AA#/	.	8c#\	.	16g/	.	16ee\	.
.	.	.	.	16f#/JJ)	.	16ff#\JJ)	.
8AA#/	.	8c#\	.	4e/	.	4gg\	.
8AA#/J	.	8c#\J	.	.	.	.	.
8BB/L	.	(4.B/	.	8g/	.	8ee\	.
8BB/	.	.	.	(4e/	.	(4g/	.
8BB/	.	.	.	.	.	.	.
8BB/J	.	8A/)	.	16f#/LL	.	16a/LL	.
.	.	.	.	16d#/JJ)	.	16f#/JJ)	.
=36	=36	=36	=36	=36	=36	=36	=36
4E\	f	4G/	f	4e/	f	8e\L	f
!	!	!	!	!	!	! 32ff#P/	!
.	.	.	.	.	.	(16eep\L	.
.	.	.	.	.	.	32dd#\L	.
.	.	.	.	.	.	32ee\JJJ)	.
8r	.	8r	.	8r	.	[4b\	.
8B\	.	(32d#\LLL	.	(32f#/LLL	.	.	.
.	.	32e\	.	32g/	.	.	.
.	.	32f#\	.	32a/	.	.	.
.	.	32d#\JJJ)	.	32f#/JJJ)	.	.	.
4E\	.	4e\	.	4g/	.	8b\L]	.
!	!	!	!	!	!	! 32ff#P/	!
.	.	.	.	.	.	(16eep\L	.
.	.	.	.	.	.	32dd#\L	.
.	.	.	.	.	.	32ee\JJJ)	.
8r	.	8r	.	8r	.	[4b\	.
8BB/	.	(32d#\LLL	.	(32f#/LLL	.	.	.
.	.	32e\	.	32g/	.	.	.
.	.	32f#\	.	32a/	.	.	.
.	.	32d#\JJJ)	.	32f#/JJJ)	.	.	.
=37	=37	=37	=37	=37	=37	=37	=37
4E\	.	8e/L	.	8g/	.	8b\]	.
.	.	8E/J	.	(16B/LL	p	(16g/LL	p
.	.	.	.	16c/JJ)	.	16a/JJ)	.
4EE/	p	8r	.	8B'/L	.	8g'/L	.
.	.	8D#/	p	8A'/J	.	8f#'/J	.
[4EE/	.	(4D#/	.	(4A/	.	(4f#/	.
8EE/]	.	8E/)	.	8G/)	.	8e/)	.
8r	.	8r	.	8r	.	8r	.
==:|!	==:|!	==:|!	==:|!	==:|!	==:|!	==:|!	==:|!
*-	*-	*-	*-	*-	*-	*-	*-
!!!RWG: Appoggiaturas of spine 'Violino 1' need manual editing in measures: 12, 13, 13, 36, 36
!!!RWG: Appoggiaturas of spine 'Violino 2' need manual editing in measures: 12
!!!RWG: Key is interpreted using the Humdrum key tool.
!!!AFT: stage2
!!!END: 1994/02/14
!!!KEY: 3047884087
!!!EMD: Converted from MuseData to Humdrum Dec 16, 2000, by Andreas Kornstaedt using muse2kern.
!!!EMD: Manual editing by Craig Sapp, Nov 2001
